svg/fluentui-system-icons/ic_fluent_calendar_add_16_regular.svg

<svg width="16" height="16" viewBox="0 0 16 16" fill="none" xmlns="http://www.w3.org/2000/svg">
<path d="M11.5 2C12.8807 2 14 3.11929 14 4.5V6.59971C13.6832 6.43777 13.3486 6.30564 13 6.20703V6H3V11.5C3 12.3284 3.67157 13 4.5 13H6.20703C6.30564 13.3486 6.43777 13.6832 6.59971 14H4.5C3.11929 14 2 12.8807 2 11.5V4.5C2 3.11929 3.11929 2 4.5 2H11.5ZM11.5 3H4.5C3.67157 3 3 3.67157 3 4.5V5H13V4.5C13 3.67157 12.3284 3 11.5 3ZM16 11.5C16 13.9853 13.9853 16 11.5 16C9.01472 16 7 13.9853 7 11.5C7 9.01472 9.01472 7 11.5 7C13.9853 7 16 9.01472 16 11.5ZM12 9.5C12 9.22386 11.7761 9 11.5 9C11.2239 9 11 9.22386 11 9.5V11H9.5C9.22386 11 9 11.2239 9 11.5C9 11.7761 9.22386 12 9.5 12H11V13.5C11 13.7761 11.2239 14 11.5 14C11.7761 14 12 13.7761 12 13.5V12H13.5C13.7761 12 14 11.7761 14 11.5C14 11.2239 13.7761 11 13.5 11H12V9.5Z" fill="#212121"/>
</svg>

<svg xmlns="http://www.w3.org/2000/svg" width="16" height="16"><path d="M11.5 2A2.5 2.5 0 0 1 14 4.5v2.1a5.465 5.465 0 0 0-1-.393V6H3v5.5A1.5 1.5 0 0 0 4.5 13h1.707c.099.349.23.683.393 1H4.5A2.5 2.5 0 0 1 2 11.5v-7A2.5 2.5 0 0 1 4.5 2h7Zm0 1h-7A1.5 1.5 0 0 0 3 4.5V5h10v-.5A1.5 1.5 0 0 0 11.5 3Zm4.5 8.5a4.5 4.5 0 1 1-9 0 4.5 4.5 0 0 1 9 0Zm-4-2a.5.5 0 0 0-1 0V11H9.5a.5.5 0 0 0 0 1H11v1.5a.5.5 0 0 0 1 0V12h1.5a.5.5 0 0 0 0-1H12V9.5Z"/></svg>
